!!!SOCIAL_FUNCTION:	songs of the sun dance
!!!PDT:	1918

Specific Region: Dakotas, Minnesota, Montana, Nebraska
!!!REG: Dakotas and Montana
!!!LING_GROUP: Siouan
!!!LANG: Tone
!!!OTL@ENG: Song at Sunrise
!!!ONM: No. 36
**kern
*Imale
*clefF4
*k[f#c#g#]
*M2/4
*>[A,B,B]
*>norep[A,B]
*>A
*MM88
4e
=1
16e
8.e
16e
8.c#
=2
16e
8.e
16e
8.c#
=3
4c#
4c#
*>B
=4!|:
*M3/4
16e
8.c#
4c#
4B
=5||
*M2/4
16c#
8.B
16B
8.A
=6
4A
4A
=7
8.F#
16F#
4F#
=8
8.F#
16F#
8.F#
16F#
=9
4E
4E
=10||
*M3/4
4C#
4E
8.E
16A
=11||
*M2/4
8.F#
16F#
16E
8.E
=12
8.E
16F#
4E
=13
4C#
8.C#
16C#
=14
2C#
=15
2C#
==:|!
*-
!!!CNT: Native American -- Sioux
!!!MRD: 1911/07//-1914///
!!!OCL: Frances Densmore
!!!YOR1: Teton Sioux Music, Bulletin 61,
!!!YOR2: Bureau of American Ethnology, Smithsonian Institution
!!!PPR: Government Printing Office
!!!PPP: Washington, D.C.
!!!PDT: 1918///
!!!ENC: Craig Stuart Sapp
!!!END: 2002/03/25/
!!!EEV: 2002/03/31/
!!!AGN: Ceremonial Song/Song of the Sun Dance
!!!MPN@@SIO: Zintka'la-lu'ta
!!!MPN@ENG: Red Bird
!!!TXO: Teton Sioux
!!!MLC: Standing Rock Reservation, South Dakota, United States of America
!!!ARL: 45.9/-100.7#
!!!catalog: Catalogue No. 502
!!!PPG: 148
!!!EFL: 36/245
!!!VTS: 2689602606
